X: 848
P: Longways for &c.
M: 3/4
L: 1/8
K: D
V: 1
(FG) A2 (Bc) | (dc)(de) (d/e/f) | A2 (BA)(GF) | E4 (DE) |\
(EF) A2 (Bc) | (dc)(de) (d/e/f) | A2 (gf)(ed) | d4 |]
(de) |\
(fg)(af)(ed) | (cd)(ec)(BA) | (Bc)(dB)(AG) | E4 (DE) |\
(EF) A2 (Bc) | (dc)(de) (d/e/f) | ABAFED | D4 |]
V: 2 clef=bass middle=d
z2 |\
d2 f2 g2 | f3  e d2 | c2 d2 G2 | A6 |\
d2 f2 g2 | f3  e d2 | fg a2 A2 | d4 |]
z2 |\
d2 f2 d2 | A2 c2 A2 | G2 B2 G2 | A6 |\
d2 f2 g2 | f3  e d2 | fg a2 A2 | d4 |]

